; generated by Slic3r 1.3.1-dev (Build f487129c7059e72b07a8179f1b8968b3a361739c) on 2018-10-20 at 15:46:54

; external perimeters extrusion width = 0.55mm (4.37mm^3/s)
; perimeters extrusion width = 0.70mm (11.44mm^3/s)
; infill extrusion width = 0.63mm (13.45mm^3/s)
; solid infill extrusion width = 0.70mm (3.81mm^3/s)
; top infill extrusion width = 0.70mm (2.86mm^3/s)

M107
M104 S200 ; set temperature
G28 ; home all axes
G1 Z5 F5000 ; lift nozzle

; Filament gcode

M109 S200 ; set temperature and wait for it to be reached
G21 ; set units to millimeters
G90 ; use absolute coordinates
M82 ; use absolute distances for extrusion
G92 E0
G92 E0
G1 Z0.350 F7800.000
G1 E-2.00000 F2400.00000
G92 E0
G1 X79.274 Y63.402 F7800.000
G1 E2.00000 F2400.00000
G1 F1800
G1 X82.011 Y61.777 E2.09850
G1 X82.367 Y61.669 E2.11003
G1 X84.283 Y61.386 E2.16994
G1 X115.717 Y61.386 E3.14256
G1 X117.621 Y61.665 E3.20209
G1 X118.047 Y61.794 E3.21587
G1 X120.691 Y63.368 E3.31107
G1 X122.200 Y65.548 E3.39311
G1 X122.346 Y65.887 E3.40454
G1 X122.879 Y68.492 E3.48682
G1 X122.879 Y103.736 E4.57731
G1 X122.844 Y104.424 E4.59863
G1 X122.651 Y105.538 E4.63359
G1 X122.593 Y105.756 E4.64058
G1 X121.924 Y107.381 E4.69494
G1 X106.207 Y134.604 E5.66757
G1 X105.880 Y135.115 E5.68633
G1 X105.020 Y136.123 E5.72735
G1 X103.657 Y137.167 E5.78049
G1 X103.496 Y137.260 E5.78624
G1 X101.334 Y138.047 E5.85742
G1 X101.151 Y138.080 E5.86318
G1 X98.849 Y138.080 E5.93437
G1 X98.666 Y138.047 E5.94013
G1 X96.505 Y137.261 E6.01130
G1 X96.343 Y137.167 E6.01706
G1 X94.980 Y136.123 E6.07019
G1 X94.152 Y135.160 E6.10950
G1 X93.793 Y134.604 E6.12999
G1 X78.076 Y107.381 E7.10261
G1 X77.407 Y105.756 E7.15698
G1 X77.349 Y105.538 E7.16396
G1 X77.156 Y104.424 E7.19893
G1 X77.121 Y103.736 E7.22025
G1 X77.121 Y68.492 E8.31074
G1 X77.654 Y65.887 E8.39302
G1 X77.800 Y65.548 E8.40445
G1 X79.231 Y63.464 E8.48266
G1 E6.48266 F2400.00000
G92 E0
G1 X100.000 Y127.217 F7800.000
G1 E2.00000 F2400.00000
G1 F1800
G1 X95.253 Y118.995 E2.29373
G1 X94.843 Y119.034 E2.30648
G1 X92.085 Y114.256 E2.47717
G1 X92.323 Y113.920 E2.48992
G1 X87.577 Y105.699 E2.78365
G1 X97.070 Y105.699 E3.07738
G1 X97.242 Y105.324 E3.09013
G1 X102.758 Y105.324 E3.26082
G1 X102.930 Y105.699 E3.27357
G1 X112.423 Y105.699 E3.56730
G1 X107.677 Y113.920 E3.86103
G1 X107.915 Y114.256 E3.87378
G1 X105.821 Y117.884 E4.00340
G1 X105.157 Y119.034 E4.04447
G1 X104.747 Y118.995 E4.05722
G1 X100.037 Y127.152 E4.34863
G1 X100.000 Y125.967 F7800.000
G1 F1800
G1 X95.594 Y118.336 E4.62127
G1 X95.184 Y118.374 E4.63403
G1 X92.826 Y114.291 E4.77991
G1 X93.065 Y113.955 E4.79266
G1 X88.659 Y106.324 E5.06530
G1 X97.471 Y106.324 E5.33794
G1 X97.643 Y105.949 E5.35070
G1 X102.357 Y105.949 E5.49658
G1 X102.529 Y106.324 E5.50933
G1 X111.341 Y106.324 E5.78198
G1 X106.935 Y113.955 E6.05462
G1 X107.174 Y114.291 E6.06737
G1 X105.279 Y117.572 E6.18458
G1 X104.816 Y118.374 E6.21325
G1 X104.406 Y118.336 E6.22601
G1 X100.037 Y125.902 E6.49633
G1 X100.000 Y124.717 F7800.000
G1 F1800
G1 X95.935 Y117.676 E6.74788
G1 X95.525 Y117.715 E6.76064
G1 X93.568 Y114.326 E6.88171
G1 X93.807 Y113.990 E6.89447
G1 X89.742 Y106.949 E7.14602
G1 X97.872 Y106.949 E7.39757
G1 X98.043 Y106.574 E7.41033
G1 X101.957 Y106.574 E7.53141
G1 X102.128 Y106.949 E7.54416
G1 X110.258 Y106.949 E7.79572
G1 X106.193 Y113.990 E8.04727
G1 X106.432 Y114.326 E8.06002
G1 X104.475 Y117.715 E8.18110
G1 X104.065 Y117.676 E8.19386
G1 X100.037 Y124.652 E8.44309
G1 X99.612 Y125.033 F7800.000
G1 E6.44309 F2400.00000
G92 E0
G1 X100.000 Y128.906 F7800.000
G1 E2.00000 F2400.00000
G1 F1800
G1 X86.114 Y104.854 E2.85929
G1 X113.886 Y104.854 E3.71859
G1 X100.037 Y128.841 E4.57556
G1 X100.000 Y130.155 F7800.000
G1 F1800
G1 X85.032 Y104.230 E5.50183
G1 X114.968 Y104.230 E6.42811
G1 X100.037 Y130.090 E7.35206
G1 X100.000 Y131.225 F7800.000
G1 F1800
G1 X99.878 Y131.155 E7.35640
G1 X99.815 Y131.084 E7.35934
G1 X84.140 Y103.934 E8.32936
G1 X84.074 Y103.684 E8.33737
G1 X84.334 Y103.605 E8.34581
G1 X115.666 Y103.605 E9.31524
G1 X115.927 Y103.683 E9.32366
G1 X115.860 Y103.934 E9.33169
G1 X100.185 Y131.084 E10.30171
G1 X100.065 Y131.187 E10.30662
G1 X99.947 Y131.095 F7800.000
G1 E8.30662 F2400.00000
G92 E0
G1 X100.048 Y127.942 F7800.000
G1 E2.00000 F2400.00000
G1 F1800
G1 X100.000 Y127.988 E2.00071
G1 X99.905 Y127.896 E2.00213
G1 F1800
G1 X94.963 Y119.336 E2.07286
G1 E0.07286 F2400.00000
G92 E0
G1 X91.883 Y114.001 F7800.000
G1 E2.00000 F2400.00000
G1 F1800
G1 X86.941 Y105.441 E2.07072
G1 F1800
G1 X86.909 Y105.313 E2.07215
G1 X86.972 Y105.295 E2.07286
G1 F1800
G1 X87.036 Y105.277 E2.07333
G1 X96.920 Y105.277 E2.14405
G1 E0.14405 F2400.00000
G92 E0
G1 X103.080 Y105.277 F7800.000
G1 E2.00000 F2400.00000
G1 F1800
G1 X112.964 Y105.277 E2.07072
G1 F1800
G1 X113.091 Y105.313 E2.07214
G1 X113.075 Y105.377 E2.07285
G1 F1800
G1 X113.059 Y105.441 E2.07333
G1 X108.117 Y114.001 E2.14405
G1 E0.14405 F2400.00000
G92 E0
G1 X105.037 Y119.336 F7800.000
G1 E2.00000 F2400.00000
G1 F1800
G1 X100.095 Y127.896 E2.07072
G1 X100.048 Y127.942 E2.07120
G1 Z0.350 F7800.000
G1 E0.07120 F2400.00000
G92 E0
G1 X100.000 Y91.973 F7800.000
G1 E2.00000 F2400.00000
G1 F1800
G1 X95.253 Y83.751 E2.29373
G1 X94.843 Y83.790 E2.30648
G1 X92.085 Y79.013 E2.47717
G1 X92.323 Y78.676 E2.48992
G1 X87.577 Y70.455 E2.78365
G1 X97.070 Y70.455 E3.07738
G1 X97.242 Y70.080 E3.09013
G1 X102.758 Y70.080 E3.26082
G1 X102.930 Y70.455 E3.27357
G1 X112.423 Y70.455 E3.56730
G1 X107.677 Y78.676 E3.86103
G1 X107.915 Y79.013 E3.87378
G1 X105.157 Y83.790 E4.04447
G1 X104.747 Y83.751 E4.05722
G1 X100.037 Y91.908 E4.34863
G1 X100.000 Y90.723 F7800.000
G1 F1800
G1 X95.594 Y83.092 E4.62127
G1 X95.184 Y83.130 E4.63403
G1 X92.826 Y79.047 E4.77991
G1 X93.065 Y78.711 E4.79266
G1 X88.659 Y71.080 E5.06530
G1 X97.471 Y71.080 E5.33794
G1 X97.643 Y70.705 E5.35070
G1 X102.357 Y70.705 E5.49658
G1 X102.529 Y71.080 E5.50933
G1 X111.341 Y71.080 E5.78197
G1 X106.935 Y78.711 E6.05462
G1 X107.174 Y79.047 E6.06737
G1 X104.816 Y83.130 E6.21325
G1 X104.406 Y83.092 E6.22601
G1 X100.037 Y90.658 E6.49633
G1 X100.000 Y89.473 F7800.000
G1 F1800
G1 X95.935 Y82.432 E6.74788
G1 X95.525 Y82.471 E6.76064
G1 X93.568 Y79.082 E6.88171
G1 X93.807 Y78.746 E6.89447
G1 X89.742 Y71.705 E7.14602
G1 X97.872 Y71.705 E7.39757
G1 X98.043 Y71.330 E7.41033
G1 X101.957 Y71.330 E7.53141
G1 X102.128 Y71.705 E7.54416
G1 X110.258 Y71.705 E7.79572
G1 X106.193 Y78.746 E8.04727
G1 X106.432 Y79.082 E8.06002
G1 X104.475 Y82.471 E8.18110
G1 X104.065 Y82.432 E8.19386
G1 X100.037 Y89.408 E8.44309
G1 X99.612 Y89.789 F7800.000
G1 E6.44309 F2400.00000
G92 E0
G1 X100.000 Y93.662 F7800.000
G1 E2.00000 F2400.00000
G1 F1800
G1 X86.114 Y69.611 E2.85929
G1 X113.886 Y69.611 E3.71859
G1 X100.037 Y93.597 E4.57556
G1 X100.000 Y94.911 F7800.000
G1 F1800
G1 X85.032 Y68.986 E5.50183
G1 X114.968 Y68.986 E6.42811
G1 X100.037 Y94.847 E7.35206
G1 X100.000 Y95.981 F7800.000
G1 F1800
G1 X99.878 Y95.911 E7.35640
G1 X99.815 Y95.840 E7.35934
G1 X84.140 Y68.690 E8.32936
G1 X84.074 Y68.440 E8.33737
G1 X84.334 Y68.361 E8.34580
G1 X115.666 Y68.361 E9.31524
G1 X115.927 Y68.439 E9.32366
G1 X115.860 Y68.690 E9.33169
G1 X100.185 Y95.840 E10.30171
G1 X100.065 Y95.943 E10.30662
G1 X99.947 Y95.851 F7800.000
G1 E8.30662 F2400.00000
G92 E0
G1 X100.048 Y92.698 F7800.000
G1 E2.00000 F2400.00000
G1 F1800
G1 X100.000 Y92.744 E2.00071
G1 X99.905 Y92.652 E2.00213
G1 F1800
G1 X94.963 Y84.093 E2.07286
G1 E0.07286 F2400.00000
G92 E0
G1 X91.883 Y78.758 F7800.000
G1 E2.00000 F2400.00000
G1 F1800
G1 X86.941 Y70.198 E2.07072
G1 F1800
G1 X86.909 Y70.070 E2.07214
G1 X86.972 Y70.051 E2.07285
G1 F1800
G1 X87.036 Y70.033 E2.07333
G1 X96.920 Y70.033 E2.14405
G1 E0.14405 F2400.00000
G92 E0
G1 X103.080 Y70.033 F7800.000
G1 E2.00000 F2400.00000
G1 F1800
G1 X112.964 Y70.033 E2.07072
G1 F1800
G1 X113.091 Y70.070 E2.07214
G1 X113.075 Y70.134 E2.07285
G1 F1800
G1 X113.059 Y70.198 E2.07333
G1 X108.117 Y78.758 E2.14405
G1 E0.14405 F2400.00000
G92 E0
G1 X105.037 Y84.093 F7800.000
G1 E2.00000 F2400.00000
G1 F1800
G1 X100.095 Y92.652 E2.07072
G1 X100.048 Y92.698 E2.07119
G1 Z0.650 F7800.000
G1 E0.07119 F2400.00000
G92 E0
G1 X100.000 Y126.109 F7800.000
G1 E2.00000 F2400.00000
G1 F3600
G1 X95.847 Y118.915 E2.22409
G1 X94.698 Y119.022 E2.25521
G1 X92.022 Y114.388 E2.39957
G1 X92.690 Y113.447 E2.43069
G1 X88.536 Y106.253 E2.65478
G1 X96.843 Y106.253 E2.87887
G1 X97.324 Y105.205 E2.90999
G1 X102.676 Y105.205 E3.05435
G1 X103.157 Y106.253 E3.08547
G1 X111.464 Y106.253 E3.30956
G1 X107.310 Y113.447 E3.53365
G1 X107.978 Y114.388 E3.56477
G1 X105.302 Y119.022 E3.70914
G1 X104.153 Y118.915 E3.74025
G1 X100.037 Y126.044 E3.96232
G1 X100.000 Y124.837 F7800.000
G1 F3600
G1 X96.193 Y118.244 E4.16771
G1 X95.045 Y118.351 E4.19883
G1 X92.777 Y114.423 E4.32120
G1 X93.444 Y113.482 E4.35231
G1 X89.637 Y106.889 E4.55770
G1 X97.251 Y106.889 E4.76309
G1 X97.732 Y105.840 E4.79421
G1 X102.268 Y105.840 E4.91658
G1 X102.749 Y106.889 E4.94770
G1 X110.363 Y106.889 E5.15309
G1 X106.556 Y113.482 E5.35848
G1 X107.223 Y114.423 E5.38959
G1 X104.955 Y118.351 E5.51196
G1 X103.807 Y118.244 E5.54308
G1 X100.037 Y124.772 E5.74645
G1 X100.000 Y123.716 F7800.000
G1 F1800
G1 X96.499 Y117.652 E5.89076
G1 X95.350 Y117.760 E5.91454
G1 X93.442 Y114.454 E5.99321
G1 X94.109 Y113.513 E6.01698
G1 X90.608 Y107.449 E6.16130
G1 X97.611 Y107.449 E6.30562
G1 X98.092 Y106.401 E6.32939
G1 X101.908 Y106.401 E6.40806
G1 X102.389 Y107.449 E6.43183
G1 X109.392 Y107.449 E6.57615
G1 X105.891 Y113.513 E6.72047
G1 X106.558 Y114.454 E6.74424
G1 X104.650 Y117.760 E6.82291
G1 X103.501 Y117.652 E6.84668
G1 X100.037 Y123.651 E6.98946
G1 X99.602 Y124.019 F7800.000
G1 E4.98946 F2400.00000
G92 E0
G1 X100.000 Y129.816 F7800.000
G1 E2.00000 F2400.00000
G1 F3600
G1 X85.326 Y104.400 E2.79171
G1 X114.674 Y104.400 E3.58343
G1 X100.037 Y129.751 E4.37311
G1 X100.000 Y131.087 F7800.000
G1 F3600
G1 X84.225 Y103.764 E5.22423
G1 X115.775 Y103.764 E6.07534
G1 X100.037 Y131.022 E6.92442
G1 X99.803 Y131.560 F7800.000
G1 F1800
G1 X99.624 Y131.457 E6.92868
G1 X99.470 Y131.291 E6.93336
G1 X83.782 Y104.119 E7.58002
G1 X83.699 Y103.865 E7.58552
G1 X83.742 Y103.603 E7.59099
G1 X83.892 Y103.362 E7.59686
G1 X84.179 Y103.217 E7.60347
G1 X84.247 Y103.203 E7.60491
G1 X115.753 Y103.203 E8.25427
G1 X115.821 Y103.217 E8.25570
G1 X116.108 Y103.362 E8.26232
G1 X116.258 Y103.603 E8.26818
G1 X116.301 Y103.865 E8.27366
G1 X116.218 Y104.119 E8.27915
G1 X100.530 Y131.291 E8.92581
G1 X100.376 Y131.457 E8.93049
G1 X100.197 Y131.560 E8.93475
G1 X100.000 Y131.595 E8.93887
G1 X99.877 Y131.574 E8.94143
G1 X99.767 Y131.357 F7800.000
G1 E6.94143 F2400.00000
G92 E0
G1 X100.247 Y128.792 F7800.000
G1 E2.00000 F2400.00000
G1 F1200
G1 X99.753 Y128.297 E2.01929
G1 X98.497 Y126.122 E2.08862
G1 X100.584 Y128.209 E2.17007
G1 X100.920 Y127.626 E2.18865
G1 X100.000 Y126.705 E2.22458
G1 X100.336 Y126.122 E2.24316
G1 X101.257 Y127.043 E2.27909
G1 X101.594 Y126.460 E2.29767
G1 X100.673 Y125.539 E2.33360
G1 X101.009 Y124.956 E2.35218
G1 X101.930 Y125.877 E2.38811
G1 X102.267 Y125.294 E2.40669
G1 X101.346 Y124.373 E2.44262
G1 X101.682 Y123.790 E2.46119
G1 X102.603 Y124.711 E2.49713
G1 X102.940 Y124.128 E2.51570
G1 X102.019 Y123.207 E2.55164
G1 X102.356 Y122.625 E2.57021
G1 X103.276 Y123.545 E2.60615
G1 X103.613 Y122.962 E2.62472
G1 X102.692 Y122.042 E2.66066
G1 X103.029 Y121.459 E2.67923
G1 X103.949 Y122.379 E2.71517
G1 X104.286 Y121.796 E2.73374
G1 X103.365 Y120.876 E2.76968
G1 X103.702 Y120.293 E2.78825
G1 X104.623 Y121.214 E2.82418
G1 X104.959 Y120.631 E2.84276
G1 X104.038 Y119.710 E2.87869
G1 X104.253 Y119.338 E2.89053
G1 X104.463 Y119.358 E2.89637
G1 X104.801 Y119.553 E2.90713
G1 X105.296 Y120.048 E2.92643
G1 E0.92643 F2400.00000
G92 E0
G1 X96.814 Y121.681 F7800.000
G1 E2.00000 F2400.00000
G1 F1200
G1 X94.728 Y119.595 E2.08140
G1 X95.984 Y121.770 E2.15072
G1 X98.070 Y123.856 E2.23212
G1 X99.326 Y126.032 E2.30144
G1 X97.240 Y123.946 E2.38283
G1 X98.497 Y126.122 E2.45216
G1 X105.568 Y119.366 F7800.000
G1 F1200
G1 X108.409 Y114.446 E2.47754
G1 X108.434 Y113.831 F7800.000
G1 F1200
G1 X107.939 Y113.336 E2.49703
G1 X107.817 Y113.164 E2.50291
G1 X108.139 Y112.607 E2.52085
G1 X109.060 Y113.528 E2.55715
G1 X109.400 Y112.939 E2.57611
G1 X108.479 Y112.018 E2.61242
G1 X108.819 Y111.429 E2.63138
G1 X109.740 Y112.350 E2.66768
G1 X110.080 Y111.761 E2.68664
G1 X109.159 Y110.840 E2.72295
G1 X109.499 Y110.251 E2.74191
G1 X110.420 Y111.172 E2.77821
G1 X110.760 Y110.583 E2.79717
G1 X109.839 Y109.662 E2.83348
G1 X110.179 Y109.073 E2.85244
G1 X111.100 Y109.994 E2.88874
G1 X111.440 Y109.405 E2.90771
G1 X110.519 Y108.484 E2.94401
G1 X110.859 Y107.895 E2.96297
G1 X111.780 Y108.816 E2.99928
G1 X112.120 Y108.227 E3.01824
G1 X111.199 Y107.307 E3.05454
G1 X111.539 Y106.718 E3.07350
G1 X112.460 Y107.638 E3.10981
G1 X112.800 Y107.049 E3.12877
G1 X111.879 Y106.129 E3.16507
G1 X112.219 Y105.540 E3.18403
G1 X113.140 Y106.460 E3.22034
G1 X113.480 Y105.871 E3.23930
G1 X112.397 Y104.788 E3.28201
G1 X113.326 Y104.788 E3.30791
G1 X113.820 Y105.283 E3.32741
G1 X112.544 Y105.865 F7800.000
G1 F1200
G1 X111.468 Y104.788 E3.36986
G1 X110.539 Y104.788 E3.39576
G1 X111.615 Y105.865 E3.43820
G1 X110.686 Y105.865 E3.46410
G1 X109.610 Y104.788 E3.50655
G1 X108.681 Y104.788 E3.53245
G1 X109.757 Y105.865 E3.57489
G1 X108.828 Y105.865 E3.60079
G1 X107.752 Y104.788 E3.64324
G1 X106.823 Y104.788 E3.66914
G1 X107.899 Y105.865 E3.71159
G1 X106.970 Y105.865 E3.73749
G1 X105.894 Y104.788 E3.77993
G1 X104.965 Y104.788 E3.80583
G1 X106.041 Y105.865 E3.84828
G1 X105.112 Y105.865 E3.87418
G1 X104.036 Y104.788 E3.91662
G1 X103.229 Y104.788 E3.93911
G1 X103.229 Y104.910 E3.94252
G1 X104.183 Y105.865 E3.98015
G1 X103.812 Y105.865 E3.99051
G1 X103.724 Y105.673 E3.99640
G1 X103.724 Y105.405 E4.00387
G1 X102.841 Y104.802 F7800.000
G1 F1200
G1 X97.159 Y104.802 E4.02917
G1 X96.771 Y105.283 F7800.000
G1 F1200
G1 X96.276 Y104.788 E4.04847
G1 X95.357 Y104.788 E4.07384
G1 X96.433 Y105.865 E4.11585
G1 X95.514 Y105.865 E4.14123
G1 X94.437 Y104.788 E4.18324
G1 X93.518 Y104.788 E4.20861
G1 X94.594 Y105.865 E4.25062
G1 X93.675 Y105.865 E4.27599
G1 X92.598 Y104.788 E4.31800
G1 X91.679 Y104.788 E4.34338
G1 X92.755 Y105.865 E4.38539
G1 X91.836 Y105.865 E4.41076
G1 X90.759 Y104.788 E4.45277
G1 X89.840 Y104.788 E4.47814
G1 X90.916 Y105.865 E4.52015
G1 X89.997 Y105.865 E4.54552
G1 X88.920 Y104.788 E4.58754
G1 X88.001 Y104.788 E4.61291
G1 X89.078 Y105.865 E4.65492
G1 X88.158 Y105.865 E4.68029
G1 X87.081 Y104.788 E4.72230
G1 X86.180 Y104.788 E4.74719
G1 X88.289 Y106.915 E4.82986
G1 X89.545 Y109.091 E4.89918
G1 X87.460 Y107.005 E4.98058
G1 X88.716 Y109.181 E5.04989
G1 X90.801 Y111.266 E5.13129
G1 X92.057 Y113.442 E5.20061
G1 X89.972 Y111.356 E5.28200
G1 X91.228 Y113.532 E5.35132
G1 X91.722 Y114.026 E5.37061
G1 X91.591 Y114.446 F7800.000
G1 F1200
G1 X94.432 Y119.366 E5.39599
G1 Z0.650 F7800.000
G1 E3.39599 F2400.00000
G92 E0
G1 X100.000 Y90.865 F7800.000
G1 E2.00000 F2400.00000
G1 F3600
G1 X95.847 Y83.671 E2.22409
G1 X94.698 Y83.778 E2.25521
G1 X92.022 Y79.144 E2.39957
G1 X92.690 Y78.203 E2.43069
G1 X88.536 Y71.009 E2.65478
G1 X96.843 Y71.009 E2.87887
G1 X97.324 Y69.961 E2.90999
G1 X102.676 Y69.961 E3.05435
G1 X103.157 Y71.009 E3.08547
G1 X111.464 Y71.009 E3.30956
G1 X107.310 Y78.203 E3.53365
G1 X107.978 Y79.144 E3.56477
G1 X105.302 Y83.778 E3.70914
G1 X104.153 Y83.671 E3.74025
G1 X100.037 Y90.800 E3.96232
G1 X100.000 Y89.594 F7800.000
G1 F3600
G1 X96.193 Y83.000 E4.16771
G1 X95.045 Y83.108 E4.19883
G1 X92.777 Y79.179 E4.32120
G1 X93.444 Y78.238 E4.35231
G1 X89.637 Y71.645 E4.55770
G1 X97.251 Y71.645 E4.76309
G1 X97.732 Y70.596 E4.79421
G1 X102.268 Y70.596 E4.91658
G1 X102.749 Y71.645 E4.94770
G1 X110.363 Y71.645 E5.15309
G1 X106.556 Y78.238 E5.35848
G1 X107.223 Y79.179 E5.38959
G1 X104.955 Y83.108 E5.51196
G1 X103.807 Y83.000 E5.54308
G1 X100.037 Y89.529 E5.74645
G1 X100.000 Y88.472 F7800.000
G1 F1800
G1 X96.499 Y82.408 E5.89076
G1 X95.350 Y82.516 E5.91454
G1 X93.442 Y79.210 E5.99320
G1 X94.109 Y78.269 E6.01698
G1 X90.608 Y72.205 E6.16130
G1 X97.611 Y72.205 E6.30562
G1 X98.092 Y71.157 E6.32939
